Papirus/22x22/panel/onboard.svg

<?xml version="1.0" encoding="UTF-8" standalone="no"?>
<svg
   xmlns:osb="http://www.openswatchbook.org/uri/2009/osb"
   xmlns:dc="http://purl.org/dc/elements/1.1/"
   xmlns:cc="http://creativecommons.org/ns#"
   xmlns:rdf="http://www.w3.org/1999/02/22-rdf-syntax-ns#"
   xmlns:svg="http://www.w3.org/2000/svg"
   xmlns="http://www.w3.org/2000/svg"
   height="22"
   id="svg6530"
   version="1.1"
   viewBox="0 0 22 22"
   width="22">
  <defs
     id="defs6532">
    <linearGradient
       id="linearGradient5606"
       osb:paint="solid">
      <stop
         id="stop5608"
         offset="0"
         style="stop-color:#000000;stop-opacity:1;" />
    </linearGradient>
  </defs>
  <metadata
     id="metadata6535">
    <rdf:RDF>
      <cc:Work
         rdf:about="">
        <dc:format>
                    image/svg+xml
                </dc:format>
        <dc:type
           rdf:resource="http://purl.org/dc/dcmitype/StillImage" />
        <dc:title></dc:title>
      </cc:Work>
    </rdf:RDF>
  </metadata>
  <g
     id="layer1"
     style="display:inline"
     transform="translate(-449,-957.27265)">
    <path
       id="path4149"
       transform="translate(449,957.27265)"
       d="M 6 4.0019531 C 4.892 4.0019531 4 4.8939531 4 6.0019531 L 4 16.001953 C 4 17.109953 4.892 18.001953 6 18.001953 L 16 18.001953 C 17.108 18.001953 18 17.109953 18 16.001953 L 18 6.0019531 C 18 4.8939531 17.108 4.0019531 16 4.0019531 L 6 4.0019531 z M 8.4960938 5.96875 C 9.2759435 5.96876 9.886215 6.1924219 10.328125 6.6386719 C 10.770045 7.0849219 10.990234 7.6999781 10.990234 8.4863281 C 10.990234 9.2705081 10.770035 9.8857817 10.328125 10.332031 C 9.886215 10.778281 9.2759436 11.001953 8.4960938 11.001953 C 7.7184036 11.001953 7.1061894 10.778281 6.6621094 10.332031 C 6.2201894 9.8857817 6 9.2705181 6 8.4863281 C 6 7.6999781 6.2201894 7.0849219 6.6621094 6.6386719 C 7.1061894 6.1924219 7.7184035 5.96876 8.4960938 5.96875 z M 8.4960938 6.875 C 8.1148336 6.87501 7.819485 7.015265 7.609375 7.296875 C 7.399235 7.578495 7.2929688 7.9750881 7.2929688 8.4863281 C 7.2929686 8.9953881 7.399245 9.3922181 7.609375 9.6738281 C 7.819485 9.9554381 8.1148336 10.095703 8.4960938 10.095703 C 8.8795235 10.095703 9.1765886 9.9554281 9.3867188 9.6738281 C 9.5968488 9.3922081 9.7011619 8.9953981 9.7011719 8.4863281 C 9.7011619 7.9750981 9.5968487 7.578495 9.3867188 7.296875 C 9.1765886 7.015265 8.8795236 6.87501 8.4960938 6.875 z M 12.064453 10.150391 L 13.943359 10.150391 C 14.617059 10.150391 15.103187 10.251458 15.404297 10.455078 C 15.707567 10.658708 15.859365 10.985184 15.859375 11.433594 C 15.859365 11.669714 15.803879 11.872264 15.693359 12.039062 C 15.582879 12.203695 15.423011 12.32605 15.212891 12.40625 C 15.481501 12.48425 15.690581 12.627761 15.837891 12.837891 C 15.985191 13.048011 16.058584 13.305878 16.058594 13.611328 C 16.058584 14.079228 15.900254 14.428573 15.583984 14.658203 C 15.267704 14.887823 14.786165 15.001953 14.140625 15.001953 L 12.064453 15.001953 L 12.064453 10.150391 z M 13.316406 11.001953 L 13.316406 12.029297 L 14.007812 12.029297 C 14.204946 12.029297 14.353258 11.985136 14.455078 11.898438 C 14.556878 11.811737 14.609365 11.684595 14.609375 11.515625 C 14.609375 11.348825 14.556898 11.221466 14.455078 11.134766 C 14.353258 11.045956 14.204944 11.001953 14.007812 11.001953 L 13.316406 11.001953 z M 13.314453 12.880859 L 13.314453 14.150391 L 14.048828 14.150391 C 14.300118 14.150391 14.489584 14.098305 14.615234 13.992188 C 14.743044 13.886035 14.806641 13.724226 14.806641 13.509766 C 14.806641 13.299636 14.744801 13.143042 14.619141 13.039062 C 14.493491 12.932966 14.302288 12.880859 14.048828 12.880859 L 13.314453 12.880859 z "
       style="color:#000000;fill:#ffffff;fill-opacity:1;stroke:none;opacity:1" />
  </g>
</svg>

<?xml version="1.0" encoding="UTF-8" standalone="no"?>
<svg id="svg6530" xmlns:rdf="http://www.w3.org/1999/02/22-rdf-syntax-ns#" xmlns="http://www.w3.org/2000/svg" xmlns:osb="http://www.openswatchbook.org/uri/2009/osb" height="22" viewBox="0 0 22 22" width="22" version="1.1" xmlns:cc="http://creativecommons.org/ns#" xmlns:dc="http://purl.org/dc/elements/1.1/">
 <metadata id="metadata6535">
  <rdf:RDF>
   <cc:Work rdf:about="">
    <dc:format>image/svg+xml</dc:format>
    <dc:type rdf:resource="http://purl.org/dc/dcmitype/StillImage"/>
    <dc:title/>
   </cc:Work>
  </rdf:RDF>
 </metadata>
 <g id="layer1" transform="translate(-449 -957.27)">
  <path id="path4149" style="color:#000000" d="m6 4.002c-1.108 0-2 0.892-2 2v10c0 1.108 0.892 2 2 2h10c1.108 0 2-0.892 2-2v-10c0-1.108-0.892-2-2-2h-10zm2.4961 1.9668c0.7798 0 1.3901 0.2236 1.8319 0.6699 0.442 0.4462 0.662 1.0613 0.662 1.8476 0 0.7842-0.22 1.3995-0.662 1.8457-0.4418 0.446-1.0521 0.67-1.8319 0.67-0.7777 0-1.3899-0.224-1.834-0.67-0.4419-0.4462-0.6621-1.0615-0.6621-1.8457 0-0.7863 0.2202-1.4014 0.6621-1.8476 0.4441-0.4463 1.0563-0.6699 1.834-0.6699zm0 0.9062c-0.3813 0-0.6766 0.1403-0.8867 0.4219-0.2102 0.2816-0.3164 0.6782-0.3164 1.1894 0 0.5091 0.1062 0.9059 0.3164 1.1875 0.2101 0.2816 0.5054 0.4222 0.8867 0.4222 0.3834 0 0.6805-0.1406 0.8906-0.4222s0.3145-0.6784 0.3145-1.1875c0-0.5112-0.1044-0.9078-0.3145-1.1894s-0.5072-0.4219-0.8906-0.4219zm3.5679 3.275h1.879c0.674 0 1.16 0.101 1.461 0.305 0.304 0.204 0.455 0.53 0.455 0.979 0 0.236-0.055 0.438-0.166 0.605-0.11 0.165-0.27 0.287-0.48 0.367 0.269 0.078 0.478 0.222 0.625 0.432s0.221 0.468 0.221 0.773c0 0.468-0.159 0.818-0.475 1.047-0.316 0.23-0.798 0.344-1.443 0.344h-2.077v-4.852zm1.252 0.852v1.027h0.692c0.197 0 0.345-0.044 0.447-0.131 0.102-0.086 0.154-0.213 0.154-0.382 0-0.167-0.052-0.295-0.154-0.381-0.102-0.089-0.25-0.133-0.447-0.133h-0.692zm-0.002 1.879v1.269h0.735c0.251 0 0.441-0.052 0.566-0.158 0.128-0.106 0.192-0.268 0.192-0.482 0-0.21-0.062-0.367-0.188-0.471-0.126-0.106-0.317-0.158-0.57-0.158h-0.735z" transform="translate(449 957.27)" fill="#fff"/>
 </g>
</svg>
